packages/blockchain-info-components/src/Images/img/user-success.svg

<svg fill="none" height="87" viewBox="0 0 87 87" width="87" xmlns="http://www.w3.org/2000/svg" xmlns:xlink="http://www.w3.org/1999/xlink"><clipPath id="a"><path d="m47 0h40v40h-40z"/></clipPath><clipPath id="b"><path d="m47 0h40v40h-40z"/></clipPath><path d="m36 87c19.8823 0 36-16.1177 36-36s-16.1177-36-36-36-36 16.1177-36 36 16.1177 36 36 36z" fill="#0c6cf2"/><path d="m36.0007 50.9997c5.1566 0 9.3333-4.1767 9.3333-9.3334 0-5.1566-4.1767-9.3333-9.3333-9.3333-5.1567 0-9.3334 4.1767-9.3334 9.3333 0 5.1567 4.1767 9.3334 9.3334 9.3334zm0 4.6666c-6.23 0-18.6667 3.1267-18.6667 9.3334v4.6666h37.3333v-4.6666c0-6.2067-12.4366-9.3334-18.6666-9.3334z" fill="#fff"/><g clip-path="url(#a)"><circle cx="67" cy="20" fill="#fff" r="20"/><path clip-rule="evenodd" d="m67 36c8.8366 0 16-7.1634 16-16s-7.1634-16-16-16-16 7.1634-16 16 7.1634 16 16 16zm-9.7909-15.1242 2.8285-2.8284 4 4 10.5049-10.5049 2.8284 2.8284-13.3333 13.3333z" fill="#17cf73" fill-rule="evenodd"/><g clip-path="url(#b)"><circle cx="67" cy="20" fill="#fff" r="20"/><path d="m67.0007 3.33301c-9.2 0-16.6667 7.46669-16.6667 16.66669s7.4667 16.6666 16.6667 16.6666 16.6666-7.4666 16.6666-16.6666-7.4666-16.66669-16.6666-16.66669zm-3.3334 24.99999-8.3333-8.3333 2.35-2.35 5.9833 5.9666 12.65-12.65 2.35 2.3667z" fill="#00994c"/></g></g></svg>

<svg width="87" height="87" viewBox="0 0 87 87" fill="none" xmlns="http://www.w3.org/2000/svg">
<path d="M36 87C55.8823 87 72 70.8823 72 51C72 31.1177 55.8823 15 36 15C16.1177 15 0 31.1177 0 51C0 70.8823 16.1177 87 36 87Z" fill="#0C6CF2"/>
<path d="M36.0007 50.9997C41.1573 50.9997 45.334 46.823 45.334 41.6663C45.334 36.5097 41.1573 32.333 36.0007 32.333C30.844 32.333 26.6673 36.5097 26.6673 41.6663C26.6673 46.823 30.844 50.9997 36.0007 50.9997ZM36.0007 55.6663C29.7707 55.6663 17.334 58.793 17.334 64.9997V69.6663H54.6673V64.9997C54.6673 58.793 42.2307 55.6663 36.0007 55.6663Z" fill="white"/>
<g clip-path="url(#clip0_684_227)">
<circle cx="67" cy="20" r="20" fill="white"/>
<path fill-rule="evenodd" clip-rule="evenodd" d="M67 36C75.8366 36 83 28.8366 83 20C83 11.1634 75.8366 4 67 4C58.1634 4 51 11.1634 51 20C51 28.8366 58.1634 36 67 36ZM57.2091 20.8758L60.0376 18.0474L64.0376 22.0474L74.5425 11.5425L77.3709 14.3709L64.0376 27.7042L57.2091 20.8758Z" fill="#17CF73"/>
<g clip-path="url(#clip1_684_227)">
<circle cx="67" cy="20" r="20" fill="white"/>
<path d="M67.0007 3.33301C57.8007 3.33301 50.334 10.7997 50.334 19.9997C50.334 29.1997 57.8007 36.6663 67.0007 36.6663C76.2007 36.6663 83.6673 29.1997 83.6673 19.9997C83.6673 10.7997 76.2007 3.33301 67.0007 3.33301ZM63.6673 28.333L55.334 19.9997L57.684 17.6497L63.6673 23.6163L76.3173 10.9663L78.6673 13.333L63.6673 28.333Z" fill="#00994C"/>
</g>
</g>
<defs>
<clipPath id="clip0_684_227">
<rect width="40" height="40" fill="white" transform="translate(47)"/>
</clipPath>
<clipPath id="clip1_684_227">
<rect width="40" height="40" fill="white" transform="translate(47)"/>
</clipPath>
</defs>
</svg>
